projects/ccf-eui/src/assets/icons/organ-icons/organ-icon-bladder.svg

<svg width="64" height="64" viewBox="0 0 64 64" fill="currentColor" xmlns="http://www.w3.org/2000/svg">
<g clip-path="url(#clip0_1795_177)">
<path d="M48.7465 24.8107C48.789 23.5132 49.305 22.2763 50.1972 21.3333L54.1012 17.4293L53.1412 16.4907L51.0079 14.3573L47.1039 18.0693C46.5692 18.5903 45.9283 18.9896 45.2251 19.2399C44.5218 19.4903 43.7728 19.5858 43.0292 19.52C39.832 17.8383 36.2737 16.9596 32.6612 16.9596C29.0487 16.9596 25.4904 17.8383 22.2932 19.52C21.5919 19.547 20.8924 19.4324 20.2363 19.1832C19.5802 18.9339 18.981 18.5551 18.4745 18.0693L14.5705 14.208L13.6319 15.168L11.4985 17.3013L15.2745 21.3333C16.18 22.2608 16.7052 23.4938 16.7465 24.7893C15.7474 26.406 15.2089 28.2649 15.1892 30.1653C15.1892 36.1173 20.5225 41.1307 27.7972 42.7093C28.5933 43.1612 29.2591 43.8111 29.73 44.596C30.201 45.381 30.4611 46.2743 30.4852 47.1893V52.7147H34.9225V47.1467C34.9552 46.2258 35.2258 45.3291 35.7081 44.544C36.1904 43.7589 36.8679 43.1121 37.6745 42.6667C38.3978 42.505 39.1103 42.2984 39.8079 42.048C45.8879 39.9147 50.0905 35.4347 50.1119 30.144C50.0728 28.2849 49.6055 26.4599 48.7465 24.8107Z"/>
</g>
<defs>
<clipPath id="clip0_1795_177">
<rect width="64" height="64"/>
</clipPath>
</defs>
</svg>

<svg xmlns="http://www.w3.org/2000/svg" width="64" height="64" fill="currentColor" viewBox="0 0 64 64"><g clip-path="url(#a)"><path d="M48.747 24.81a5.3 5.3 0 0 1 1.45-3.477l3.904-3.904-.96-.938-2.133-2.134-3.904 3.712a5.18 5.18 0 0 1-4.075 1.451 22.27 22.27 0 0 0-20.736 0 5.23 5.23 0 0 1-3.818-1.45l-3.905-3.862-.938.96-2.133 2.133 3.775 4.032a5.18 5.18 0 0 1 1.473 3.456 10.43 10.43 0 0 0-1.558 5.376c0 5.952 5.334 10.966 12.608 12.544a5.31 5.31 0 0 1 2.688 4.48v5.526h4.438v-5.568a5.33 5.33 0 0 1 2.752-4.48 18 18 0 0 0 2.133-.619c6.08-2.133 10.282-6.613 10.304-11.904a12.1 12.1 0 0 0-1.366-5.333"/></g><defs><clipPath id="a"><path d="M0 0h64v64H0z"/></clipPath></defs></svg>
